X: 1156
T: Billy In The Lowground
B: ralph
B: steve tunes
M:4/4
Q: 1/4=140
K:Cmajor
V:1 
CA,|:"C"G,A,CD EGAB|cBcd cAG2|"Am"ABAG EGAB|cAGE DCCA,|
 "C"G,A,CD EGAB|cBcd cAGB|"Am"ABAG EGAB|"G"cAGE C4:|
 "C"eg2eg2 eg|aged cAG2|"Am"ea2ga2 eg|agab ag e2|
 "C"eg2eg2 eg|aged cAGB|"Am"ABAG EGAB|"G"cAGE "C"DC C2||
% abcbook-tune_id 62a420d001b47d026a44bf1d


% abcbook-boost 0
% abcbook-tablature 
% abcbook-transpose 
% abcbook-lastupdated 1665486300902
% abcbook-soundfonts 
% abcbook-repeats 3


